svgs/sharp-light/underline.svg

<svg xmlns="http://www.w3.org/2000/svg" viewBox="0 0 448 512"><!--! Font Awesome Pro 6.6.0 by @fontawesome - https://fontawesome.com License - https://fontawesome.com/license (Commercial License) Copyright 2024 Fonticons, Inc. --><path d="M0 32l16 0 128 0 16 0 0 32-16 0L96 64l0 160c0 70.7 57.3 128 128 128s128-57.3 128-128l0-160-48 0-16 0 0-32 16 0 128 0 16 0 0 32-16 0-48 0 0 160c0 88.4-71.6 160-160 160s-160-71.6-160-160L64 64 16 64 0 64 0 32zM0 448l16 0 416 0 16 0 0 32-16 0L16 480 0 480l0-32z"/></svg>

<svg xmlns="http://www.w3.org/2000/svg" viewBox="0 0 448 512"><!--! Font Awesome Pro 6.5.2 by @fontawesome - https://fontawesome.com License - https://fontawesome.com/license (Commercial License) Copyright 2024 Fonticons, Inc. --><path d="M0 32H16 144h16V64H144 96V224c0 70.7 57.3 128 128 128s128-57.3 128-128V64H304 288V32h16H432h16V64H432 384V224c0 88.4-71.6 160-160 160s-160-71.6-160-160V64H16 0V32zM0 448H16 432h16v32H432 16 0V448z"/></svg>
